static/assets/img/icons/theme/home/timer.svg

<svg height="24" viewBox="0 0 24 24" width="24" xmlns="http://www.w3.org/2000/svg"><g fill="none" fill-rule="evenodd"><path d="m0 0h24v24h-24z" opacity="0"/><g fill="#000"><path d="m12 21c-4.418278 0-8-3.581722-8-8s3.581722-8 8-8 8 3.581722 8 8-3.581722 8-8 8z" opacity=".3"/><path d="m13 5.06189375c-.3275942-.04085042-.6613397-.06189375-1-.06189375s-.6724058.02104333-1 .06189375v-1.06189375h-1c-.55228475 0-1-.44771525-1-1s.44771525-1 1-1h4c.5522847 0 1 .44771525 1 1s-.4477153 1-1 1h-1z"/><path d="m16.7099142 6.53272645.8256197-.82561967c.3905243-.39052429 1.0236893-.39052429 1.4142136 0s.3905243 1.02368927 0 1.41421356l-.7826114.78261133c-.4263559-.51538213-.9160751-.97642908-1.4572219-1.37120522z"/><path d="m11.9630156 7.5h.0739688c.2612682 0 .4784889.20115317.4985273.46165175l.4230769 5.50000005c.0211791.2753289-.18485.5156963-.460179.5368754-.0127592.0009815-.0255514.0014728-.0383482.0014728h-.9201228c-.2761423 0-.5-.2238576-.5-.5 0-.0127969.0004913-.0255891.0014728-.0383482l.4230769-5.50000005c.0200384-.26049858.2372591-.46165175.4985273-.46165175z"/></g></g></svg>

<svg width="24px" height="24px" viewBox="0 0 24 24" version="1.1" xmlns="http://www.w3.org/2000/svg" xmlns:xlink="http://www.w3.org/1999/xlink">
    <title>Icon For Timer</title>
    <g stroke="none" stroke-width="1" fill="none" fill-rule="evenodd">
        <rect opacity="0" x="0" y="0" width="24" height="24"></rect>
        <path d="M12,21 C7.581722,21 4,17.418278 4,13 C4,8.581722 7.581722,5 12,5 C16.418278,5 20,8.581722 20,13 C20,17.418278 16.418278,21 12,21 Z" fill="#000000" opacity="0.3"></path>
        <path d="M13,5.06189375 C12.6724058,5.02104333 12.3386603,5 12,5 C11.6613397,5 11.3275942,5.02104333 11,5.06189375 L11,4 L10,4 C9.44771525,4 9,3.55228475 9,3 C9,2.44771525 9.44771525,2 10,2 L14,2 C14.5522847,2 15,2.44771525 15,3 C15,3.55228475 14.5522847,4 14,4 L13,4 L13,5.06189375 Z" fill="#000000"></path>
        <path d="M16.7099142,6.53272645 L17.5355339,5.70710678 C17.9260582,5.31658249 18.5592232,5.31658249 18.9497475,5.70710678 C19.3402718,6.09763107 19.3402718,6.73079605 18.9497475,7.12132034 L18.1671361,7.90393167 C17.7407802,7.38854954 17.251061,6.92750259 16.7099142,6.53272645 Z" fill="#000000"></path>
        <path d="M11.9630156,7.5 L12.0369844,7.5 C12.2982526,7.5 12.5154733,7.70115317 12.5355117,7.96165175 L12.9585886,13.4616518 C12.9797677,13.7369807 12.7737386,13.9773481 12.4984096,13.9985272 C12.4856504,13.9995087 12.4728582,14 12.4600614,14 L11.5399386,14 C11.2637963,14 11.0399386,13.7761424 11.0399386,13.5 C11.0399386,13.4872031 11.0404299,13.4744109 11.0414114,13.4616518 L11.4644883,7.96165175 C11.4845267,7.70115317 11.7017474,7.5 11.9630156,7.5 Z" fill="#000000"></path>
    </g>
</svg>
